X: 1
T: the Call
O: "via Maivish"
R: reel
Z: 2015 John Chambers <jc:trillian.mit.edu>
M: C|
L: 1/8
K: Bm
|:\
"Bm"f2B2 B2d2 | "A"cBA2 "Bm"B4 | "A(F#m)"c3d e2f2 | "Em"g2f2 "A"e2g2 |\
"Bm"f2B2 B2d2 | "A"cBA2 "Bm"B4 | "A"c3d e2f2 | B2A2 "Bm"B4 :|
|:\
"G"b4 "D/f#"a2f2 | "Em"g2ag "D"f2d2 | "A"c3d e2f2 | "Em"g2f2 "A"e2g2 |\
"Bm"f2b2- b2a2 | "Em"g2ag "D"f2d2 | "A"c3d e2f2 | B2A2 "Bm"B4 :|
